X:1
T:Runyan, 76.76.88.87
T:Runyan, 76.76.88.87
T:William Marion Runyan, 1914
T:Public Domain Courtesy of the Cyber Hymnal™
C:William Marion Runyan, 1914
Z:Public Domain
Z:Courtesy of the Cyber Hymnal™
%%score ( 1 2 ) ( 3 4 )
L:1/8
Q:1/4=113
M:6/8
K:C
V:1 treble 
V:2 treble 
V:3 bass 
V:4 bass 
V:1
 [EG] | [EG]2 [EA] (cB)[EA] | [Fc]3 [FB]2 [FG] | [FG]3 (dA)[FB] | [Ec]3 [EG]2 [EG] | %5
 [EG]2 [Ge] (ed)[Gc] | [Fd]3 [FA]2 [GA] | [^FA]2 [FB] (cB)[Fc] | [F-d]3 [FG]2 [FG] | %9
 [EG]2 [EA] (cB)[EA] | [Fc]2 [FB] [FB]2 [FG] | [FG]2 [FA] (Be)[Fd] | [Ed]2 [Ec] [Ec]2 [Ec] | %13
 [Ec]2 [Ec] (cB)[^Fc] | [Ge]2 [Gc] [EG]2 G | [FA]2 [GA] (Ac)[=Fe] | d3 !fermata![Ec]2 |] %17
V:2
 x | x3 E2 x | x6 | x3 F2 x | x6 | x3 G2 x | x6 | x3 ^F2 x | x6 | x3 E2 x | x6 | x3 F2 x | x6 | %13
 x3 ^F2 x | x5 G | x3 ^F2 x | G2 F x2 |] %17
V:3
 [C,C] | [C,C]2 [C,C] [C,G,]2 [C,G,] | [D,G,]3 [D,G,]2 [G,B,] | [G,B,]3 (B,C)[G,D] | %4
 [C,C]3 [C,C]2 [C,C] | [C,C]2 [C,C] ([C,C][D,B,])[E,C] | [F,A,]3 [F,C]2 [E,^C] | %7
 [D,D]2 [D,D] [D,A,]2 [D,D] | [G,B,]3- [G,B,]2 [G,B,] | [C,C]2 [C,C] [C,C]2 [C,C] | %10
 [D,G,]2 [D,G,] G,2 [G,B,] | [G,B,]2 [G,C] (DA,)[G,B,] | [C,C]2 [C,C] [C,C]2 [A,C] | %13
 [A,C]2 [A,C] [_A,C]2 [A,C] | [G,C]2 [G,E] [G,C]2 [E,C] | [F,C]2 [E,^C] (DA,)[D,A,] | %16
 B,2 G, !fermata![C,G,]2 |] %17
V:4
 x | x6 | x6 | x3 G,2 x | x6 | x6 | x6 | x6 | x6 | x6 | x3 G,2 x | x3 G,2 x | x6 | x6 | x6 | %15
 x3 D,2 x | G,3 x2 |] %17

